assets/symbols/mulberry/conical_flask.svg

<svg height="850.394" viewBox="0 0 850.394 850.394" width="850.394" xmlns="http://www.w3.org/2000/svg"><g fill="none"><g stroke="#231f20"><path d="m327.58 66.52h190.65m-33.47-.07v158.89l150.06 411.32s27 87.25-31.78 118.26c-63.55 33.53-180.14 30.08-180.14 30.08-33.52 0-114.75 3.51-178.3-30.01-58.76-31.01-31.78-118.271-31.78-118.271l150.05-411.319v-158.88" stroke-width="28"/><path d="m474.1 491.96h-60.03v180.05h60.03m-60.03-89.58h60.03m-56.4-47.65h32.07m-32.07 91.3h32.07" stroke-width="21"/></g><path d="m0 0h850.394v850.394h-850.394z"/></g></svg>

<svg xmlns="http://www.w3.org/2000/svg" width="850.394" height="850.394" viewBox="0 0 850.394 850.394" overflow="visible"><g fill="none" stroke="#231f20"><path stroke-width="28" d="M327.58 66.52h190.65M484.76 66.45v158.89l150.06 411.32s27 87.25-31.78 118.26C539.49 788.45 422.9 785 422.9 785c-33.52 0-114.75 3.51-178.3-30.01-58.76-31.01-31.78-118.271-31.78-118.271L362.87 225.4V66.52"/><path stroke-width="21" d="M474.1 491.96h-60.03v180.05h60.03M414.07 582.43h60.03M417.7 534.78h32.07M417.7 626.08h32.07"/></g><path fill="none" d="M0 0h850.394v850.394H0z"/></svg>
